X:32
T:Childs game - via Sylvia Gardiner
%%VWML:SBG-1-2-570-0
F:http://www.vwml.org/record/SBG/1/2/570
Z:Original Sibelius transcriptions by M. & S. Graebe
M:4/4
I:linebreak $
K:F
V:1 treble nm="P1"
V:1
 c d c B | A B c3/2 c/ | G A B G | A B c2 | c3/2 d/ c B | A B c2 |$ G3/2 A/ B G/ G/ | F E F2 | %8
w: |||||bis- cuits too|||
 c3/2 d/ c B | A B c2 | G3/2 A/ B G | A B c2 |$ c d c B | A B c3/2 c/ | G3/2 A/ B G | F E F2 | %16
w: |||* * field|||||
 G2 A2 | G F F2 | %18
w: Rock, rock|the cra- dle.|

